wordnet/artwork/archive/reflexive.svg

<?xml version="1.0" encoding="UTF-8" standalone="no"?>
<svg
   version="1.1"
   id="Layer_1"
   x="0px"
   y="0px"
   width="128"
   height="128"
   viewBox="0 0 128 128"
   enable-background="new 0 0 512 512"
   xml:space="preserve"
   inkscape:version="1.2.2 (b0a8486541, 2022-12-01)"
   sodipodi:docname="reflexive.svg"
   xmlns:inkscape="http://www.inkscape.org/namespaces/inkscape"
   xmlns:sodipodi="http://sodipodi.sourceforge.net/DTD/sodipodi-0.dtd"
   xmlns="http://www.w3.org/2000/svg"
   xmlns:svg="http://www.w3.org/2000/svg"
   xmlns:rdf="http://www.w3.org/1999/02/22-rdf-syntax-ns#"
   xmlns:cc="http://creativecommons.org/ns#"
   xmlns:dc="http://purl.org/dc/elements/1.1/"><metadata
     id="metadata72"><rdf:RDF><cc:Work
         rdf:about=""><dc:format>image/svg+xml</dc:format><dc:type
           rdf:resource="http://purl.org/dc/dcmitype/StillImage" /></cc:Work></rdf:RDF></metadata><defs
     id="defs70" /><sodipodi:namedview
     pagecolor="#ffffff"
     bordercolor="#666666"
     borderopacity="1"
     objecttolerance="10"
     gridtolerance="10"
     guidetolerance="10"
     inkscape:pageopacity="0"
     inkscape:pageshadow="2"
     inkscape:window-width="1256"
     inkscape:window-height="480"
     id="namedview68"
     showgrid="false"
     inkscape:zoom="0.4609375"
     inkscape:cx="256"
     inkscape:cy="256"
     inkscape:window-x="26"
     inkscape:window-y="23"
     inkscape:window-maximized="0"
     inkscape:current-layer="Layer_1"
     inkscape:showpageshadow="0"
     inkscape:pagecheckerboard="1"
     inkscape:deskcolor="#d1d1d1" /><path
     d="M 14.211284,56.09981 13.548966,18.989613 25.705061,27.772238 C 33.478844,19.704087 43.60394,14.384176 54.861973,12.57038 c 13.7372,-2.213386 27.51432,1.05565 38.79304,9.204388 11.278717,8.148735 18.709327,20.20202 20.922577,33.939413 2.21326,13.737393 -1.05564,27.514324 -9.20452,38.793238 C 97.224473,105.78595 85.171183,113.21656 71.433933,115.42962 57.696723,117.64301 43.919604,114.37397 32.640881,106.22523 22.854594,99.154759 15.789761,88.837605 12.747215,77.173761 l 13.692507,-3.571586 c 2.214801,8.490699 7.360159,16.003 14.488195,21.152914 16.958516,12.252321 40.723026,8.423751 52.975336,-8.53476 C 106.15557,69.261817 102.3265,45.497222 85.367983,33.244908 70.472403,22.483039 50.327443,24.129616 37.343358,36.181051 l 12.308215,8.892533 z"
     id="path66"
     inkscape:connector-curvature="0"
     style="fill:#ff4500;stroke-width:0.231977" /></svg>

<svg xmlns="http://www.w3.org/2000/svg" xml:space="preserve" width="128" height="128"><path d="m14.211 56.1-.662-37.11 12.156 8.782c7.774-8.068 17.899-13.388 29.157-15.202 13.737-2.213 27.514 1.056 38.793 9.205 11.279 8.149 18.71 20.202 20.923 33.94 2.213 13.737-1.056 27.514-9.205 38.792-8.149 11.279-20.202 18.71-33.94 20.923-13.736 2.213-27.513-1.056-38.792-9.205a52.176 52.176 0 0 1-19.894-29.051l13.693-3.572a37.994 37.994 0 0 0 14.488 21.153c16.958 12.252 40.723 8.424 52.975-8.535 12.253-16.958 8.423-40.723-8.535-52.975-14.896-10.762-35.04-9.115-48.025 2.936l12.309 8.893z" style="fill:#ff4500;stroke-width:.231977"/></svg>
